X: 1
T: Mrs Gordon of Rafford
T: the Misses Gordon of Rafford
C: Scott Cameron
R: reel
Z: 2009 John Chambers <jc:trillian.mit.edu>
S: PDF of unknown origin from Mike Briggs
B:
M: C|
L: 1/8
K: A
E2 \
| "A"A2cA E2AE | "D"F2D2 D2BA | "E7"G2E2 B2E2 | "A"ABcd e2E2 || "A"A2cA E2AE | "Bm"F2D2 "B7"B3A |
| "E7"GABG E2ed | "A"c2A2 A2 :: cd | "A"e2cA a2ga | "D"f2d2 "Bm"d2fe | "B7"^d2B2 b3a |
| "E7"g2e2 e2cd || "A"e2cA a2ga | "D"f2d2 "Bm"B3A | "E7"GABG E2ed | "A"c2A2 A2 :|
